svgs/light/circle-1.svg

<svg xmlns="http://www.w3.org/2000/svg" viewBox="0 0 512 512"><!--! Font Awesome Pro 6.3.0 by @fontawesome - https://fontawesome.com License - https://fontawesome.com/license (Commercial License) Copyright 2023 Fonticons, Inc. --><path d="M256 0C114.6 0 0 114.6 0 256s114.6 256 256 256s256-114.6 256-256S397.4 0 256 0zM256 480c-123.5 0-224-100.5-224-224s100.5-224 224-224s224 100.5 224 224S379.5 480 256 480zM320 352h-48V144c0-5.906-3.25-11.31-8.453-14.09c-5.172-2.812-11.5-2.5-16.42 .7813l-48 32C191.8 167.6 189.8 177.5 194.7 184.9c4.875 7.344 14.8 9.312 22.19 4.438L240 173.9V352H192c-8.844 0-16 7.156-16 16S183.2 384 192 384h128c8.844 0 16-7.156 16-16S328.8 352 320 352z"/></svg>

<svg xmlns="http://www.w3.org/2000/svg" viewBox="0 0 512 512"><!-- Font Awesome Pro 6.0.0-alpha2 by @fontawesome - https://fontawesome.com License - https://fontawesome.com/license (Commercial License) --><path d="M320 352H272V144C272 138.094 268.75 132.688 263.547 129.906C258.375 127.094 252.047 127.406 247.125 130.688L199.125 162.688C191.766 167.594 189.781 177.531 194.688 184.875C199.563 192.219 209.484 194.188 216.875 189.313L240 173.906V352H192C183.156 352 176 359.156 176 368S183.156 384 192 384H320C328.844 384 336 376.844 336 368S328.844 352 320 352ZM256 16C123.451 16 16 123.451 16 256S123.451 496 256 496S496 388.549 496 256S388.549 16 256 16ZM256 464C141.309 464 48 370.691 48 256S141.309 48 256 48S464 141.309 464 256S370.691 464 256 464Z"/></svg>
